X:1
T:America PM
C:W. Billings
A:Rev. Dr. Byles
S:https://www.loc.gov/resource/ihas.200154806.0/?sp=42
L:1/2
M:3/2
Q:1/2=80
P:A4
K:DMaj
V:1 clef=treble
%%MIDI program 1 73 % Piccolo
V:2 clef=treble 
%%MIDI program 2 69 % Oboe
V:3 clef=treble-8
%%MIDI program 3 67 % Tenor Sax
V:4 clef=bass
%%MIDI program 4 71 % Bassoon
[P:A]
%
[V:1]
A|(dc)B|(cB)A|A2G|A2
c|d2B|(f/>e/)dd|(AB)A|A2
A|(dc/B/)A|(B/>c/d)A|(de)e|d2
d|(AB)A|(dc)A|d2e|c2
A|(AB)d|(ed)f|(dA)G|A2
A|d2f|(Be)d|(c/B/A)A|A2|]
w: 1.~To Thee_ the tune_ful An-them soars,
+: To Thee, our Fa__ther's God,_ and ours;
+: This Wil__der-ness__ we chose_ our Seat:
+: To Rights_ se-cur'd_ by E-qual Laws,
+: From Per_se-cu_tion's I_ron Claws,
+: We here have fought_ our calm__ Re-treat.
%
[V:2]
D|F2D|(D/>E/F)E|F2E|E2
E|F2G|(AG)F|(FG)E|F2
F|(DE)F|(EA)G|(FG)E|F2
F|(AG)E|(F/>G/A)F|(FE/D/)E|E2
F|(FG)A|(E/>F/G)A|(D/>E/F)G|F2
F|(F/>E/D)A|(DE)F|(FG/F/)E|F2|]
w: 2.~See! how the Flocks__ of JE-SUS rise!
+: See! how the Face_ of Par_a-dise
+: Blooms thro'_ the Thick_ets of_ the Wild!
+: Here Li_ber-ty__ e-rects__ her Throne;
+: Here Plen_ty pours__ her Trea__sures down;
+: Peace smiles,__ as Heav'n_ly Cher__ubs mild.
%
[V:3]
w: 3.~
+: 
+: 
+: 
+: 
+: 
+: 
%
[V:4]



